img/svg/app-store.svg

<svg width="162" height="48" viewBox="0 0 162 48" fill="none" xmlns="http://www.w3.org/2000/svg">
<path d="M156.322 48H5.67829C2.54097 48 0 45.46 0 42.324V5.67603C0 2.53996 2.54097 0 5.67829 0H156.322C159.459 0 162 2.53996 162 5.67603V42.324C162 45.46 159.459 48 156.322 48V48Z" fill="#424551"/>
<path d="M160.938 42.3238C160.938 44.8638 158.889 46.9113 156.348 46.9113H5.70508C3.16411 46.9113 1.08984 44.8638 1.08984 42.3238V5.67589C1.08984 3.13593 3.16411 1.0625 5.70508 1.0625H156.348C158.889 1.0625 160.964 3.11002 160.964 5.67589L160.938 42.3238V42.3238Z" fill="#424551"/>
<path d="M36.1659 23.7413C36.14 19.8795 39.3287 17.9875 39.4843 17.9098C37.6696 15.2661 34.8697 14.9033 33.8586 14.8774C31.4995 14.6182 29.2181 16.3029 27.9996 16.3029C26.7811 16.3029 24.9146 14.9033 22.9184 14.9551C20.3518 15.007 17.9408 16.4843 16.6186 18.791C13.8965 23.508 15.9187 30.4281 18.5371 34.2121C19.8333 36.0782 21.3629 38.1517 23.3591 38.0739C25.3034 37.9962 26.0293 36.8299 28.3885 36.8299C30.7217 36.8299 31.3958 38.0739 33.4438 38.0221C35.5437 37.9962 36.8659 36.156 38.1103 34.264C39.6139 32.1387 40.2102 30.0134 40.2361 29.9098C40.2361 29.9098 36.2178 28.3806 36.1659 23.7413V23.7413ZM32.3291 12.3633C33.366 11.0415 34.0919 9.2791 33.8845 7.46484C32.355 7.5426 30.4625 8.52748 29.3736 9.79746C28.4144 10.9378 27.533 12.778 27.7663 14.5145C29.4773 14.6441 31.2402 13.6592 32.3291 12.3633V12.3633Z" fill="white"/>
<path d="M156.322 0H75.6328L107.239 48H156.322C159.459 48 162 45.46 162 42.324V5.67603C162 2.53996 159.459 0 156.322 0Z" fill="url(#paint0_linear_2677:5745)"/>
<path d="M64.4319 37.8146H61.7095L60.2056 33.1235H55.02L53.5939 37.8146H50.9492L56.083 21.8492H59.2722L64.4319 37.8146V37.8146ZM59.7648 31.1537L58.4166 26.9809C58.261 26.5663 58.0017 25.5555 57.6128 23.9745H57.5609C57.4054 24.6483 57.1461 25.6591 56.809 26.9809L55.4867 31.1537H59.7648V31.1537ZM77.6294 31.9054C77.6294 33.8751 77.0849 35.4043 76.0219 36.5447C75.0625 37.5555 73.8958 38.0738 72.4697 38.0738C70.9399 38.0738 69.8509 37.5295 69.1768 36.441V42.4799H66.6358V30.0652C66.6358 28.847 66.6099 27.5771 66.5321 26.2812H68.7879L68.9435 28.0954H68.9953C69.8509 26.7218 71.1474 26.022 72.8846 26.022C74.2328 26.022 75.3737 26.5663 76.2812 27.6289C77.1887 28.7434 77.6294 30.1689 77.6294 31.9054V31.9054ZM75.0366 32.009C75.0366 30.8946 74.7773 29.9615 74.2847 29.2358C73.7402 28.4842 72.9883 28.0954 72.0548 28.0954C71.4326 28.0954 70.8621 28.3028 70.3436 28.7174C69.825 29.1321 69.4879 29.6764 69.3324 30.3762C69.2546 30.6354 69.2287 30.8946 69.2027 31.1537V33.0717C69.2027 33.901 69.462 34.6267 69.9806 35.1969C70.4991 35.7671 71.1733 36.0522 71.9771 36.0522C72.9364 36.0522 73.6883 35.6894 74.2328 34.9377C74.7773 34.212 75.0366 33.2272 75.0366 32.009ZM90.9047 31.9054C90.9047 33.8751 90.3602 35.4043 89.2972 36.5447C88.3378 37.5555 87.171 38.0738 85.745 38.0738C84.2152 38.0738 83.1262 37.5295 82.4521 36.441V42.4799H79.8852V30.0652C79.8852 28.847 79.8593 27.5771 79.7815 26.2812H82.0372L82.1928 28.0954H82.2447C83.1003 26.7218 84.3967 26.022 86.1339 26.022C87.4822 26.022 88.623 26.5663 89.5305 27.6289C90.438 28.7434 90.9047 30.1689 90.9047 31.9054V31.9054ZM88.286 32.009C88.286 30.8946 88.0267 29.9615 87.534 29.2358C86.9895 28.4842 86.2376 28.0954 85.3042 28.0954C84.6819 28.0954 84.1115 28.3028 83.5929 28.7174C83.0744 29.1321 82.7373 29.6764 82.5817 30.3762C82.5039 30.6872 82.4521 30.9464 82.4521 31.1537V33.0717C82.4521 33.901 82.7114 34.6267 83.2299 35.1969C83.7485 35.7671 84.4226 36.0522 85.2264 36.0522C86.1858 36.0522 86.9377 35.6894 87.4822 34.9377C88.0267 34.212 88.286 33.2272 88.286 32.009ZM105.71 33.3308C105.71 34.6786 105.243 35.793 104.284 36.6483C103.247 37.5814 101.795 38.0479 99.9278 38.0479C98.2165 38.0479 96.8423 37.711 95.7792 37.063L96.3756 34.9377C97.4905 35.6116 98.7351 35.9226 100.083 35.9226C101.043 35.9226 101.795 35.7153 102.339 35.2747C102.884 34.8341 103.143 34.2639 103.143 33.5382C103.143 32.8902 102.91 32.346 102.469 31.9054C102.028 31.4647 101.302 31.0501 100.265 30.6613C97.4646 29.6246 96.0644 28.0954 96.0644 26.0738C96.0644 24.752 96.5571 23.6894 97.5424 22.86C98.5276 22.0306 99.85 21.6159 101.458 21.6159C102.91 21.6159 104.128 21.8751 105.087 22.3676L104.439 24.441C103.532 23.9485 102.521 23.7153 101.38 23.7153C100.472 23.7153 99.7722 23.9485 99.2536 24.3892C98.8388 24.7779 98.6054 25.2704 98.6054 25.8406C98.6054 26.4626 98.8388 27.0069 99.3314 27.3956C99.7463 27.7844 100.524 28.1732 101.665 28.6397C103.039 29.184 104.05 29.8319 104.699 30.5835C105.399 31.3092 105.71 32.2164 105.71 33.3308V33.3308ZM114.188 28.225H111.362V33.8233C111.362 35.2488 111.855 35.9485 112.866 35.9485C113.333 35.9485 113.696 35.9226 114.007 35.819L114.085 37.7628C113.592 37.9442 112.918 38.0479 112.088 38.0479C111.077 38.0479 110.299 37.7369 109.729 37.1149C109.158 36.4928 108.873 35.4561 108.873 34.0047V28.1991H107.188V26.2812H108.873V24.1818L111.388 23.4302V26.3071H114.214L114.188 28.225V28.225ZM126.893 31.9572C126.893 33.7196 126.375 35.171 125.363 36.3114C124.3 37.4777 122.9 38.0738 121.137 38.0738C119.452 38.0738 118.103 37.5036 117.092 36.3892C116.081 35.2747 115.588 33.8492 115.588 32.1386C115.588 30.3503 116.107 28.8989 117.144 27.7585C118.181 26.6181 119.581 26.0479 121.319 26.0479C123.004 26.0479 124.378 26.6181 125.389 27.7326C126.401 28.8211 126.893 30.2466 126.893 31.9572ZM124.248 32.009C124.248 30.9464 124.015 30.0393 123.574 29.2876C123.03 28.3805 122.278 27.914 121.267 27.914C120.23 27.914 119.452 28.3805 118.907 29.2876C118.441 30.0393 118.233 30.9723 118.233 32.0609C118.233 33.1235 118.466 34.0306 118.907 34.7822C119.452 35.6894 120.23 36.1559 121.241 36.1559C122.226 36.1559 122.978 35.6894 123.548 34.7563C124.015 33.9788 124.248 33.0717 124.248 32.009V32.009ZM135.216 28.536C134.957 28.4842 134.672 28.4583 134.412 28.4583C133.505 28.4583 132.805 28.7952 132.338 29.4691C131.923 30.0652 131.69 30.8168 131.69 31.7498V37.7887H129.123V29.9097C129.123 28.6915 129.097 27.4993 129.045 26.2812H131.275L131.379 28.4842H131.457C131.716 27.7326 132.157 27.1105 132.727 26.6699C133.272 26.2812 133.92 26.0479 134.568 26.0479C134.801 26.0479 135.009 26.0738 135.216 26.0997V28.536V28.536ZM146.676 31.5166C146.676 31.9054 146.651 32.2941 146.573 32.6829H138.898C138.924 33.8233 139.287 34.7045 140.013 35.3006C140.661 35.8449 141.491 36.1041 142.528 36.1041C143.669 36.1041 144.706 35.9226 145.639 35.5598L146.028 37.3222C144.939 37.7887 143.643 38.022 142.165 38.022C140.376 38.022 138.976 37.5036 137.965 36.441C136.953 35.3784 136.435 33.9788 136.435 32.2164C136.435 30.4799 136.902 29.0285 137.861 27.8881C138.846 26.644 140.194 26.0479 141.88 26.0479C143.539 26.0479 144.81 26.6699 145.639 27.8881C146.339 28.873 146.676 30.0652 146.676 31.5166ZM144.239 30.8427C144.265 30.0911 144.084 29.4172 143.747 28.873C143.306 28.1473 142.632 27.8103 141.698 27.8103C140.869 27.8103 140.168 28.1473 139.65 28.847C139.235 29.3913 138.976 30.0652 138.898 30.8427H144.239V30.8427ZM54.294 16.1991C53.5939 16.1991 52.9716 16.1732 52.4531 16.0954V8.37187C53.1791 8.2682 53.905 8.21637 54.631 8.21637C57.5609 8.21637 58.9092 9.66777 58.9092 12.0263C58.9092 14.7218 57.3016 16.1991 54.294 16.1991V16.1991ZM54.7088 9.20125C54.3199 9.20125 53.9828 9.22717 53.6976 9.279V15.1365C53.8532 15.1624 54.1384 15.1624 54.5532 15.1624C56.4719 15.1624 57.5609 14.0738 57.5609 12.0263C57.5609 10.212 56.5757 9.20125 54.7088 9.20125ZM63.1096 16.2509C61.4502 16.2509 60.3871 15.0069 60.3871 13.3481C60.3871 11.6116 61.4761 10.3676 63.2133 10.3676C64.8468 10.3676 65.9358 11.5339 65.9358 13.2704C65.9358 15.0069 64.7949 16.2509 63.1096 16.2509ZM63.1614 11.2747C62.254 11.2747 61.6576 12.13 61.6576 13.3222C61.6576 14.4885 62.254 15.3438 63.1355 15.3438C64.0171 15.3438 64.6134 14.4367 64.6134 13.2963C64.6394 12.13 64.043 11.2747 63.1614 11.2747V11.2747ZM75.3737 10.4712L73.6105 16.1213H72.4438L71.7178 13.6591C71.5363 13.063 71.3807 12.441 71.2511 11.819H71.2251C71.1214 12.441 70.9659 13.063 70.7584 13.6591L69.9806 16.1213H68.8138L67.1544 10.4712H68.4508L69.099 13.1667C69.2546 13.8146 69.3842 14.4108 69.4879 14.9809H69.5139C69.6176 14.5144 69.7472 13.9183 69.9806 13.1667L70.7844 10.4712H71.8215L72.5993 13.1149C72.7808 13.7628 72.9364 14.3848 73.066 14.9809H73.092C73.1698 14.4108 73.2994 13.7887 73.4809 13.1149L74.181 10.4712H75.3737V10.4712ZM81.8817 16.1213H80.6371V12.8816C80.6371 11.8708 80.2482 11.3784 79.4963 11.3784C78.7443 11.3784 78.2258 12.0263 78.2258 12.752V16.1213H76.9553V12.0781C76.9553 11.5857 76.9553 11.0414 76.9034 10.4712H78.0184L78.0702 11.3524H78.0961C78.4332 10.7563 79.1333 10.3676 79.8852 10.3676C81.0779 10.3676 81.8557 11.2747 81.8557 12.752L81.8817 16.1213V16.1213ZM85.3561 16.1213H84.0856V7.85352H85.3561V16.1213ZM89.9454 16.2509C88.286 16.2509 87.2229 15.0069 87.2229 13.3481C87.2229 11.6116 88.3119 10.3676 90.0491 10.3676C91.6826 10.3676 92.7715 11.5339 92.7715 13.2704C92.7715 15.0069 91.6307 16.2509 89.9454 16.2509ZM89.9972 11.2747C89.0897 11.2747 88.4934 12.13 88.4934 13.3222C88.4934 14.4885 89.0897 15.3438 89.9713 15.3438C90.8529 15.3438 91.4492 14.4367 91.4492 13.2963C91.4492 12.13 90.8788 11.2747 89.9972 11.2747V11.2747ZM97.7239 16.1213L97.6201 15.4734H97.5942C97.2053 15.9917 96.6608 16.2509 95.9348 16.2509C94.9236 16.2509 94.1976 15.5511 94.1976 14.5922C94.1976 13.1926 95.4162 12.4669 97.5164 12.4669V12.3632C97.5164 11.6116 97.1275 11.2488 96.3497 11.2488C95.7792 11.2488 95.3125 11.3784 94.8717 11.6635L94.6125 10.8341C95.131 10.4971 95.7792 10.3416 96.5571 10.3416C98.035 10.3416 98.7869 11.1192 98.7869 12.6743V14.7477C98.7869 15.3179 98.8128 15.7585 98.8647 16.0954L97.7239 16.1213V16.1213ZM97.5424 13.2963C96.1422 13.2963 95.4422 13.6332 95.4422 14.4367C95.4422 15.0328 95.8052 15.3179 96.2978 15.3179C96.946 15.3179 97.5424 14.8254 97.5424 14.1775V13.2963ZM104.88 16.1213L104.828 15.2142H104.802C104.439 15.8881 103.843 16.2509 102.987 16.2509C101.613 16.2509 100.602 15.0587 100.602 13.374C100.602 11.6116 101.639 10.3676 103.091 10.3676C103.843 10.3676 104.387 10.6267 104.699 11.1451H104.724V7.85352H105.995V14.5922C105.995 15.1365 106.021 15.6548 106.047 16.1213H104.88V16.1213ZM104.699 12.8038C104.699 12.0004 104.18 11.3265 103.376 11.3265C102.443 11.3265 101.872 12.1559 101.872 13.3222C101.872 14.4626 102.469 15.2401 103.35 15.2401C104.154 15.2401 104.699 14.5403 104.699 13.7369V12.8038V12.8038ZM113.955 16.2509C112.296 16.2509 111.232 15.0069 111.232 13.3481C111.232 11.6116 112.321 10.3676 114.059 10.3676C115.692 10.3676 116.781 11.5339 116.781 13.2704C116.781 15.0069 115.64 16.2509 113.955 16.2509ZM114.007 11.2747C113.099 11.2747 112.529 12.13 112.529 13.3222C112.529 14.4885 113.125 15.3438 114.007 15.3438C114.888 15.3438 115.485 14.4367 115.485 13.2963C115.459 12.13 114.888 11.2747 114.007 11.2747ZM123.548 16.1213H122.278V12.8816C122.278 11.8708 121.889 11.3784 121.137 11.3784C120.385 11.3784 119.893 12.0263 119.893 12.752V16.1213H118.622V12.0781C118.622 11.5857 118.622 11.0414 118.57 10.4712H119.685L119.737 11.3524H119.763C120.1 10.7563 120.8 10.3676 121.552 10.3676C122.745 10.3676 123.523 11.2747 123.523 12.752V16.1213H123.548ZM132.001 11.4043H130.627V14.1516C130.627 14.8514 130.86 15.1883 131.353 15.1883C131.586 15.1883 131.768 15.1624 131.923 15.1365L131.949 16.0954C131.716 16.1991 131.379 16.225 130.964 16.225C129.979 16.225 129.382 15.6807 129.382 14.2552V11.4043H128.553V10.4712H129.382V9.43451L130.627 9.07166V10.4712H132.001V11.4043ZM138.665 16.1213H137.42V12.9075C137.42 11.8967 137.031 11.3784 136.279 11.3784C135.631 11.3784 135.009 11.819 135.009 12.7261V16.1473H133.764V7.85352H135.009V11.2488H135.035C135.424 10.6267 135.994 10.3157 136.746 10.3157C137.939 10.3157 138.665 11.2488 138.665 12.7261V16.1213V16.1213ZM145.484 13.6073H141.698C141.724 14.6699 142.424 15.292 143.487 15.292C144.058 15.292 144.55 15.1883 145.017 15.0328L145.224 15.914C144.68 16.1473 144.058 16.2509 143.332 16.2509C141.569 16.2509 140.506 15.1365 140.506 13.4C140.506 11.6635 141.569 10.3676 143.176 10.3676C144.628 10.3676 145.536 11.4302 145.536 13.063C145.536 13.2185 145.536 13.4 145.484 13.6073ZM144.343 12.7002C144.343 11.819 143.902 11.1969 143.098 11.1969C142.372 11.1969 141.802 11.819 141.724 12.7002H144.343V12.7002Z" fill="white"/>
<defs>
<linearGradient id="paint0_linear_2677:5745" x1="118.823" y1="48.1132" x2="118.823" y2="-644.442" gradientUnits="userSpaceOnUse">
<stop stop-color="#1A1A1A" stop-opacity="0.1"/>
<stop offset="0.123" stop-color="#212121" stop-opacity="0.151"/>
<stop offset="0.308" stop-color="#353535" stop-opacity="0.227"/>
<stop offset="0.532" stop-color="#575757" stop-opacity="0.318"/>
<stop offset="0.783" stop-color="#858585" stop-opacity="0.421"/>
<stop offset="1" stop-color="#B3B3B3" stop-opacity="0.51"/>
</linearGradient>
</defs>
</svg>

<svg width="162" height="48" fill="none" xmlns="http://www.w3.org/2000/svg"><path d="M156.322 48H5.678A5.676 5.676 0 010 42.324V5.676A5.676 5.676 0 015.678 0h150.644A5.675 5.675 0 01162 5.676v36.648A5.675 5.675 0 01156.322 48z" fill="#424551"/><path d="M160.938 42.324a4.58 4.58 0 01-4.59 4.587H5.705c-2.54 0-4.615-2.047-4.615-4.587V5.676a4.625 4.625 0 014.615-4.614h150.643a4.609 4.609 0 014.616 4.614l-.026 36.648z" fill="#424551"/><path d="M36.166 23.741c-.026-3.861 3.163-5.753 3.318-5.831-1.814-2.644-4.614-3.007-5.625-3.033-2.36-.259-4.64 1.426-5.86 1.426-1.218 0-3.084-1.4-5.08-1.348-2.567.052-4.978 1.53-6.3 3.836-2.723 4.717-.7 11.637 1.918 15.421 1.296 1.866 2.826 3.94 4.822 3.862 1.944-.078 2.67-1.244 5.03-1.244 2.333 0 3.007 1.244 5.055 1.192 2.1-.026 3.422-1.866 4.666-3.758 1.504-2.125 2.1-4.25 2.126-4.354 0 0-4.018-1.53-4.07-6.169zm-3.837-11.378c1.037-1.322 1.763-3.084 1.556-4.898-1.53.078-3.422 1.062-4.511 2.332-.96 1.14-1.841 2.981-1.608 4.717 1.711.13 3.474-.855 4.563-2.15z" fill="#fff"/><path d="M156.322 0h-80.69l31.607 48h49.083A5.675 5.675 0 00162 42.324V5.676A5.675 5.675 0 00156.322 0z" fill="url(#paint0_linear_2677:5745)"/><path d="M64.432 37.815h-2.723l-1.503-4.691H55.02l-1.426 4.69h-2.645l5.134-15.965h3.19l5.159 15.966zm-4.667-6.661l-1.348-4.173c-.156-.415-.415-1.426-.804-3.007h-.052c-.156.674-.415 1.685-.752 3.007l-1.322 4.173h4.278zm17.864.751c0 1.97-.544 3.5-1.607 4.64-.96 1.01-2.126 1.529-3.552 1.529-1.53 0-2.62-.544-3.293-1.633v6.039h-2.541V30.065c0-1.218-.026-2.488-.104-3.784h2.256l.156 1.814h.051c.856-1.373 2.152-2.073 3.89-2.073 1.348 0 2.489.544 3.396 1.607.908 1.114 1.348 2.54 1.348 4.276zm-2.592.104c0-1.114-.26-2.047-.752-2.773-.545-.752-1.297-1.14-2.23-1.14-.622 0-1.193.207-1.711.621-.519.415-.856.96-1.012 1.66-.077.258-.103.518-.13.777v1.918c0 .829.26 1.555.779 2.125.518.57 1.192.855 1.996.855.96 0 1.711-.363 2.256-1.114.544-.726.804-1.71.804-2.929zm15.868-.104c0 1.97-.545 3.5-1.608 4.64-.96 1.01-2.126 1.529-3.552 1.529-1.53 0-2.619-.544-3.293-1.633v6.039h-2.567V30.065c0-1.218-.026-2.488-.104-3.784h2.256l.156 1.814h.052c.855-1.373 2.152-2.073 3.889-2.073 1.348 0 2.489.544 3.397 1.607.907 1.114 1.374 2.54 1.374 4.276zm-2.619.104c0-1.114-.26-2.047-.752-2.773-.544-.752-1.296-1.14-2.23-1.14-.622 0-1.192.207-1.711.621-.519.415-.856.96-1.011 1.66-.078.31-.13.57-.13.777v1.918c0 .829.26 1.555.778 2.125.519.57 1.193.855 1.996.855.96 0 1.712-.363 2.256-1.114.545-.726.804-1.71.804-2.929zm17.424 1.322c0 1.348-.467 2.462-1.426 3.317-1.037.933-2.489 1.4-4.356 1.4-1.712 0-3.086-.337-4.149-.985l.597-2.125c1.114.674 2.36.985 3.707.985.96 0 1.712-.208 2.256-.648.545-.44.804-1.011.804-1.737 0-.648-.233-1.192-.674-1.633-.441-.44-1.167-.855-2.204-1.244-2.8-1.036-4.2-2.566-4.2-4.587 0-1.322.492-2.385 1.477-3.214.986-.83 2.308-1.244 3.916-1.244 1.452 0 2.67.26 3.629.752l-.648 2.073c-.907-.492-1.918-.726-3.059-.726-.908 0-1.608.233-2.126.674-.415.389-.649.881-.649 1.452 0 .622.234 1.166.726 1.555.415.388 1.193.777 2.334 1.244 1.374.544 2.385 1.192 3.034 1.944.7.725 1.011 1.632 1.011 2.747zm8.478-5.106h-2.826v5.598c0 1.426.493 2.126 1.504 2.126.467 0 .83-.026 1.141-.13l.078 1.944c-.493.181-1.167.285-1.997.285-1.011 0-1.789-.311-2.359-.933-.571-.622-.856-1.659-.856-3.11v-5.806h-1.685v-1.918h1.685v-2.1l2.515-.75v2.876h2.826l-.026 1.918zm12.705 3.732c0 1.763-.518 3.214-1.53 4.354-1.063 1.167-2.463 1.763-4.226 1.763-1.685 0-3.034-.57-4.045-1.685-1.011-1.114-1.504-2.54-1.504-4.25 0-1.789.519-3.24 1.556-4.38 1.037-1.14 2.437-1.711 4.175-1.711 1.685 0 3.059.57 4.07 1.685 1.012 1.088 1.504 2.514 1.504 4.224zm-2.645.052c0-1.063-.233-1.97-.674-2.721-.544-.907-1.296-1.374-2.307-1.374-1.037 0-1.815.466-2.36 1.374-.466.751-.674 1.684-.674 2.773 0 1.063.233 1.97.674 2.721.545.907 1.323 1.374 2.334 1.374.985 0 1.737-.467 2.307-1.4.467-.777.7-1.684.7-2.747zm10.968-3.473a4.22 4.22 0 00-.804-.078c-.907 0-1.607.337-2.074 1.011-.415.596-.648 1.348-.648 2.28v6.04h-2.567v-7.88c0-1.217-.026-2.41-.078-3.628h2.23l.104 2.203h.078c.259-.751.7-1.374 1.27-1.814.545-.389 1.193-.622 1.841-.622.233 0 .441.026.648.052v2.436zm11.46 2.98c0 .39-.025.778-.103 1.167h-7.675c.026 1.14.389 2.022 1.115 2.618.648.544 1.478.803 2.515.803 1.141 0 2.178-.181 3.111-.544l.389 1.762c-1.089.467-2.385.7-3.863.7-1.789 0-3.189-.518-4.2-1.581-1.012-1.063-1.53-2.462-1.53-4.225 0-1.736.467-3.188 1.426-4.328.985-1.244 2.333-1.84 4.019-1.84 1.659 0 2.93.622 3.759 1.84.7.985 1.037 2.177 1.037 3.629zm-2.437-.673c.026-.752-.155-1.426-.492-1.97-.441-.726-1.115-1.063-2.049-1.063-.829 0-1.53.337-2.048 1.037-.415.544-.674 1.218-.752 1.996h5.341zM54.294 16.199c-.7 0-1.322-.026-1.84-.104V8.372a15.387 15.387 0 012.177-.156c2.93 0 4.278 1.452 4.278 3.81 0 2.696-1.607 4.173-4.615 4.173zm.415-6.998a5.73 5.73 0 00-1.011.078v5.857c.155.026.44.026.855.026 1.919 0 3.008-1.088 3.008-3.136 0-1.814-.985-2.825-2.852-2.825zm8.4 7.05c-1.659 0-2.722-1.244-2.722-2.903 0-1.736 1.09-2.98 2.826-2.98 1.634 0 2.723 1.166 2.723 2.902 0 1.737-1.141 2.98-2.826 2.98zm.052-4.976c-.907 0-1.503.855-1.503 2.047 0 1.167.596 2.022 1.477 2.022.882 0 1.478-.907 1.478-2.048.026-1.166-.57-2.021-1.452-2.021zm12.213-.804l-1.763 5.65h-1.167l-.726-2.462a21.206 21.206 0 01-.467-1.84h-.026c-.104.622-.26 1.244-.467 1.84l-.777 2.462h-1.167l-1.66-5.65h1.297l.648 2.696c.156.648.285 1.244.389 1.814h.026c.104-.467.233-1.063.467-1.814l.803-2.696h1.037l.778 2.644c.182.648.337 1.27.467 1.866h.026c.078-.57.207-1.192.389-1.866l.7-2.644h1.193zm6.508 5.65h-1.245v-3.24c0-1.01-.389-1.503-1.14-1.503-.753 0-1.271.648-1.271 1.374v3.37h-1.27v-4.044c0-.492 0-1.037-.053-1.607h1.115l.052.881h.026c.337-.596 1.037-.984 1.79-.984 1.192 0 1.97.907 1.97 2.384l.026 3.37zm3.474 0h-1.27V7.854h1.27v8.267zm4.59.13c-1.66 0-2.723-1.244-2.723-2.903 0-1.736 1.089-2.98 2.826-2.98 1.634 0 2.722 1.166 2.722 2.902 0 1.737-1.14 2.98-2.826 2.98zm.051-4.976c-.907 0-1.504.855-1.504 2.047 0 1.167.597 2.022 1.478 2.022.882 0 1.478-.907 1.478-2.048 0-1.166-.57-2.021-1.452-2.021zm7.727 4.846l-.104-.648h-.026c-.389.519-.933.778-1.66.778-1.01 0-1.736-.7-1.736-1.659 0-1.4 1.218-2.125 3.318-2.125v-.104c0-.751-.389-1.114-1.166-1.114-.57 0-1.037.13-1.478.415l-.26-.83c.519-.337 1.167-.492 1.945-.492 1.478 0 2.23.777 2.23 2.332v2.074c0 .57.026 1.01.078 1.347l-1.141.026zm-.182-2.825c-1.4 0-2.1.337-2.1 1.14 0 .597.363.882.856.882.648 0 1.244-.493 1.244-1.14v-.882zm7.338 2.825l-.052-.907h-.026c-.363.674-.959 1.037-1.815 1.037-1.374 0-2.385-1.192-2.385-2.877 0-1.762 1.037-3.006 2.489-3.006.752 0 1.296.259 1.608.777h.025V7.854h1.271v6.738c0 .544.026 1.063.052 1.53h-1.167zm-.181-3.317c0-.804-.519-1.478-1.323-1.478-.933 0-1.504.83-1.504 1.996 0 1.14.597 1.918 1.478 1.918.804 0 1.349-.7 1.349-1.503v-.933zm9.256 3.447c-1.659 0-2.723-1.244-2.723-2.903 0-1.736 1.089-2.98 2.827-2.98 1.633 0 2.722 1.166 2.722 2.902 0 1.737-1.141 2.98-2.826 2.98zm.052-4.976c-.908 0-1.478.855-1.478 2.047 0 1.167.596 2.022 1.478 2.022.881 0 1.478-.907 1.478-2.048-.026-1.166-.597-2.021-1.478-2.021zm9.541 4.846h-1.27v-3.24c0-1.01-.389-1.503-1.141-1.503s-1.244.648-1.244 1.374v3.37h-1.271v-4.044c0-.492 0-1.037-.052-1.607h1.115l.052.881h.026c.337-.596 1.037-.984 1.789-.984 1.193 0 1.971.907 1.971 2.384v3.37h.025zm8.453-4.717h-1.374v2.748c0 .7.233 1.036.726 1.036.233 0 .415-.026.57-.052l.026.96c-.233.103-.57.129-.985.129-.985 0-1.582-.544-1.582-1.97v-2.85h-.829v-.934h.829V9.435l1.245-.363v1.4h1.374v.932zm6.664 4.717h-1.245v-3.213c0-1.011-.389-1.53-1.141-1.53-.648 0-1.27.441-1.27 1.348v3.421h-1.245V7.854h1.245v3.395h.026c.389-.622.959-.933 1.711-.933 1.193 0 1.919.933 1.919 2.41v3.395zm6.819-2.514h-3.786c.026 1.063.726 1.685 1.789 1.685.571 0 1.063-.104 1.53-.26l.207.882c-.544.233-1.166.337-1.892.337-1.763 0-2.826-1.115-2.826-2.851s1.063-3.032 2.67-3.032c1.452 0 2.36 1.062 2.36 2.695 0 .155 0 .337-.052.544zm-1.141-.907c0-.881-.441-1.503-1.245-1.503-.726 0-1.296.622-1.374 1.503h2.619z" fill="#fff"/><defs><linearGradient id="paint0_linear_2677:5745" x1="118.823" y1="48.113" x2="118.823" y2="-644.442" gradientUnits="userSpaceOnUse"><stop stop-color="#1A1A1A" stop-opacity=".1"/><stop offset=".123" stop-color="#212121" stop-opacity=".151"/><stop offset=".308" stop-color="#353535" stop-opacity=".227"/><stop offset=".532" stop-color="#575757" stop-opacity=".318"/><stop offset=".783" stop-color="#858585" stop-opacity=".421"/><stop offset="1" stop-color="#B3B3B3" stop-opacity=".51"/></linearGradient></defs></svg>
